X: 43040
T: Wind And Rain, The
R: jig
M: 6/8
K: Emixolydian
~B3 B2c|BAF EFG|~A3 ~d2B|cAF EFA|
~B3 B2c|BAF EFA|~d2B cAF|1 EFE EFA:|2 EFE E2d||
cee eaf|ecB ABc|~d3 cBA|cBB B2d|
cee eaf|ecB ABc|~d2B cAF|1 EFE E2d:|2 EFE EFA||

